src/icons/editor/glyph/RowsIcon.svg

<svg width="24" height="24" viewBox="0 0 24 24" fill="none" xmlns="http://www.w3.org/2000/svg">
<path fill-rule="evenodd" clip-rule="evenodd" d="M21 5C21 3.89539 20.1046 3 19 3H5C3.89542 3 3 3.89539 3 5V9C3 10.1046 3.89542 11 5 11H19C20.1046 11 21 10.1046 21 9V5ZM21 15C21 13.8954 20.1046 13 19 13H5C3.89542 13 3 13.8954 3 15V19C3 20.1046 3.89542 21 5 21H19C20.1046 21 21 20.1046 21 19V15Z" fill="currentColor"/>
</svg>

<svg xmlns="http://www.w3.org/2000/svg" width="24" height="24" fill="currentColor" viewBox="0 0 24 24">
  <path fill-rule="evenodd" d="M21 5a2 2 0 0 0-2-2H5a2 2 0 0 0-2 2v4a2 2 0 0 0 2 2h14a2 2 0 0 0 2-2V5Zm0 10a2 2 0 0 0-2-2H5a2 2 0 0 0-2 2v4a2 2 0 0 0 2 2h14a2 2 0 0 0 2-2v-4Z" clip-rule="evenodd"/>
</svg>
